X: 675
T: Evcârâ Seyir
C: Erol Bingöl
O: Turkey
F: http://compmusic.upf.edu/node/140
N: evcara--seyir--sofyan--1--erol_bingol
N: makam= evcara
N: form= seyir
N: usul= sofyan = 4/4
M: 4/4
L: 1/16
K: C _1/4B ^f ^c ^A
Q: 1/4=60
%%MIDI tuningsystem comma53
f2g2 f2^e2 f4 =a4  | ^g4 =a2g2 f3^e d4  | \
w:   |   | 
c2d2 ^e2f2 g4 =a2b2  | =a2g2 f2^e2 f8  | 
w:   |   | 
^e2f2 g2f2 e2f2 e2d2  | c2B2 A2B2 c8  | \
w:   |   | 
d4 c2d2 ^e2f2 e2d2  | d2c2 c2B2 A2c2 B4  | 
w:   |   | 
A2B2 c2d2 d2c2 c2B2  | A2B2 c2B2 A3G F4  | \
w:   |   | 
z2c2 B2A2 G4 F4  | 
w:   | 
G2B2 A2G2 F8  | |


